X:12
T:Mason's Apron
M:C|
R:reel
C:Traditional
K:A
eg | aA/A/AA ABAF | EFAB cABc | dB/B/BB BcBA | Bcde fefg |
aA/A/AA ABAF | EFAB cABc | dcde fega | AAcB A2 :|
|: ee | (=c^c)ec fe/e/ee | (=c^c)ec fe/e/ee | (3ddd fd gdfd | (3ddd fd gdfd |
(=c^c)ec fe/e/ee | (=c^c)ec fe/e/ee | dcde fega | AAcB A2 :|

